X: 227
T: Bağa Girdim Kamışa
C: Manok Ağa
O: Turkey
F: http://compmusic.upf.edu/node/140
N: kurdilihicazkar--sarki--sofyan--baga_girdim_kamisa--manok_aga
N: makam= kurdilihicazkar
N: form= sarki
N: usul= sofyan = 4/4
M: 4/4
L: 1/16
K: C _B _e _A 
Q: 1/4=150
%%MIDI tuningsystem comma53
z2d_7/8e f3/2a/gf _e3/2d/cd B4  | \
w:   | 
z2d_7/8e f3/2a/gf _e3/2d/cd g4  | 
w:   | 
z2d_7/8e f3/2a/gf _e3/2d/cd B2_7/8AG  | \
w:   | 
G2e4dc B3/2_7/8A/AG G4  | 
w:   | 
z2d_7/8e f3/2a/gf _e3/2d/cd B4  | \
w:   | 
z2d_7/8e f3/2a/gf _e3/2d/cd g4  | 
w:   | 
z2d_7/8e f3/2a/gf _e3/2d/cd B2_7/8AG  | \
w:   | 
G2e4dc B3/2_7/8A/AG G4  | 
w:   | 
f2g14  | z4 f2g2 g4 g4  | g3f g2_1/4a2 b2a2 g2f2  | \
w:  Hey  hey   |  Ba ğa  gir dim   |  *  *  ka mı şa   | 
_3/4e2d2 b2{c'}b=a a2g2 f2e2  | 
w:  *  *  Su  *  ne  *  yap *  sın   | 
d2=a2 g2f2 (3gf_3/4eed d4  | b3/2=a/ga f2g2 f3/2_3/4e/dc defg  | 
w:  *  yan *  *  mı *  *  *  *  şa   |  SAZ  | 
b3/2=a/ga f2g2 f3/2_7/8e/_3/4ed d2_2/4ef  | \
w:   | 
g4 f2g2 g4 g3/2f/ed  | 
w:  *  Mev lam  sa bır  | 
c2d_3/4e f2g2 f3/2_e/e3/2d/ d3/2c/c3/2B/  | \
w:  *  lar  *  *  ver sin   | 
B2z2 e2{f}ed d3/2c/cB B3/2_7/8A/AG  | 
w:  *  Ya *  rin den  *  *  *  *  ay  | 
G2d2 c2B2 B_7/8AAG (3gf_7/8eed  | \
w:  *  rıl *  *  mı *  *  *  şa   | 
d2z2 c2d2 d4 d3/2_7/8e/de  | 
w:  *  Mev lam  sa bır  | 
c2d_3/4e f2g2 f3/2_7/8e/ed d3/2c/cB  | \
w:  *  lar  *  *  ver sin   | 
B2z2 e2{f}ed d2c2 B2_7/8A2  | 
w:  *  Ya *  rin den  *  *  ay  | 
G2d2 c2B2 (3cB_7/8AAG G4  | z2d_7/8e f3/2a/gf _e3/2d/cd B4  | 
w:  *  rıl *  *  mı *  *  *  *  şa   |   | 
z2d_7/8e f3/2a/gf _e3/2d/cd g4  | \
w:   | 
z2d_7/8e f3/2a/gf _e3/2d/cd B2_7/8AG  | 
w:   | 
G2e4dc B3/2_7/8A/AG G4  | z2d_7/8e f3/2a/gf _e3/2d/cd B4  | 
w:   |   | 
z2d_7/8e f3/2a/gf _e3/2d/cd g4  | \
w:   | 
z2d_7/8e f3/2a/gf _e3/2d/cd B2_7/8AG  | 
w:   | 
G2e4dc B3/2_7/8A/AG G4  | f2g14  | z4 f2g2 g4 g4  | \
w:   |  Hey  hey   |  Ba ğa  gir dim   | 
g3f g2_1/4a2 b2a2 g2f2  | 
w:  *  *  ka mı şa   | 
_3/4e2d2 b2{c'}b=a a2g2 f2e2  | d2=a2 g2f2 (3gf_3/4eed d4  | \
w:  *  *  Su  *  ne  *  yap *  sın   |  *  yan *  *  mı *  *  *  *  şa   | 
b3/2=a/ga f2g2 f3/2_3/4e/dc defg  | 
w:  SAZ  | 
b3/2=a/ga f2g2 f3/2_7/8e/_3/4ed d2_2/4ef  | \
w:   | 
g4 f2g2 g4 g3/2f/ed  | 
w:  *  Mev lam  sa bır  | 
c2d_3/4e f2g2 f3/2_e/e3/2d/ d3/2c/c3/2B/  | \
w:  *  lar  *  *  ver sin   | 
B2z2 e2{f}ed d3/2c/cB B3/2_7/8A/AG  | 
w:  *  Ya *  rin den  *  *  *  *  ay  | 
G2d2 c2B2 B_7/8AAG (3gf_7/8eed  | \
w:  *  rıl *  *  mı *  *  *  şa   | 
d2z2 c2d2 d4 d3/2_7/8e/de  | 
w:  *  Mev lam  sa bır  | 
c2d_3/4e f2g2 f3/2_7/8e/ed d3/2c/cB  | \
w:  *  lar  *  *  ver sin   | 
B2z2 e2{f}ed d2c2 B2_7/8A2  | 
w:  *  Ya *  rin den  *  *  ay  | 
G2d2 c2B2 (3cB_7/8AAG G4  | |


